assets/Other/icon-check-type06.svg

<?xml version="1.0" encoding="UTF-8"?>
<svg width="20px" height="15px" viewBox="0 0 20 15" version="1.1" xmlns="http://www.w3.org/2000/svg" xmlns:xlink="http://www.w3.org/1999/xlink">
    <title>icon-check-type06</title>
    <g id="icon-set最新整理" stroke="none" stroke-width="1" fill="none" fill-rule="evenodd">
        <g id="images/h5/icon-set" transform="translate(-326.000000, -94.000000)" fill="#FFFFFF" fill-rule="nonzero">
            <g id="icon-check-type06" transform="translate(326.000000, 94.000000)">
                <path d="M7.6583769,14.7110279 C7.4674645,14.8965119 7.2069933,15 6.9364248,15 C6.6658564,15 6.4053852,14.8965119 6.2144727,14.7110279 L0.44876589,9.14109059 C-0.14958863,8.56314639 -0.14958863,7.62597379 0.44876589,7.04911329 L1.17071801,6.35160679 C1.76925955,5.77366259 2.73840687,5.77366259 3.3367614,6.35160679 L6.9364248,9.82866359 L16.6632386,0.433458188 C17.26178,-0.144486063 18.2318624,-0.144486063 18.8292819,0.433458188 L19.5512341,1.13096459 C20.1495886,1.70890879 20.1495886,2.64590079 19.5512341,3.22294199 L7.6583769,14.7110279 Z" id="icon-approved"></path>
            </g>
        </g>
    </g>
</svg>

<svg xmlns="http://www.w3.org/2000/svg" width="20" height="15" viewBox="0 0 20 15"><title>icon-check-type06</title><path fill="#fff" fill-rule="nonzero" d="M7.658 14.711c-.19.186-.451.289-.722.289s-.53-.103-.722-.289L.45 9.141a1.443 1.443 0 0 1 0-2.092l.722-.697a1.57 1.57 0 0 1 2.166 0l3.6 3.477L16.662.433a1.57 1.57 0 0 1 2.166 0l.722.698a1.443 1.443 0 0 1 0 2.092z"/></svg>
